X: 9
M:4/4
L:1/8
K:Bb
|:G|DGBG dGBG|DGBG AFcA|1DGBG dGBG|cAFA BG G2:|
2DGBG dBgd|c'afa bg g2||

